assets/images/by_all.svg

<svg fill="none" height="21" viewBox="0 0 20 21" width="20" xmlns="http://www.w3.org/2000/svg"><g clip-rule="evenodd" fill="#000" fill-rule="evenodd"><path d="m16.5833 2.5h-12.49997c-.55253 0-1.08243.21949-1.47314.61019-.3907.39071-.61019.92061-.61019 1.47314v12.49997c0 .5526.21949 1.0825.61019 1.4732.39071.3907.92061.6102 1.47314.6102h12.49997c.5526 0 1.0825-.2195 1.4732-.6102s.6102-.9206.6102-1.4732v-12.49997c0-.55253-.2195-1.08243-.6102-1.47314-.3907-.3907-.9206-.61019-1.4732-.61019zm-13.54163 4.01771c0-.49271.46666-.89271 1.04166-.89271h12.49997c.575 0 1.0417.4 1.0417.89271v10.71459c0 .4927-.4667.8927-1.0417.8927h-12.49997c-.575 0-1.04166-.4-1.04166-.8927z"/><path d="m8.78796 9.83331c.27325 0 .53532-.10535.72853-.29289.19322-.18754.30177-.44189.30177-.70711 0-.26521-.10855-.51957-.30177-.7071-.19321-.18754-.45528-.2929-.72853-.2929s-.53531.10536-.72853.2929c-.19322.18753-.30177.44189-.30177.7071 0 .26522.10855.51957.30177.70711s.45528.29289.72853.29289zm3.09094 0c.2732 0 .5353-.10535.7285-.29289s.3018-.44189.3018-.70711c0-.26521-.1086-.51957-.3018-.7071-.1932-.18754-.4553-.2929-.7285-.2929-.2733 0-.5353.10536-.7286.2929-.1932.18753-.3017.44189-.3017.7071 0 .26522.1085.51957.3017.70711.1933.18754.4553.29289.7286.29289zm3.0909 0c.2732 0 .5353-.10535.7285-.29289s.3018-.44189.3018-.70711c0-.26521-.1086-.51957-.3018-.7071-.1932-.18754-.4553-.2929-.7285-.2929-.2733 0-.5353.10536-.7286.2929-.1932.18753-.3017.44189-.3017.7071 0 .26522.1085.51957.3017.70711.1933.18754.4553.29289.7286.29289zm-9.27275 2.99999c.27325 0 .53532-.1053.72854-.2929.19321-.1875.30176-.4419.30176-.7071s-.10855-.5196-.30176-.7071c-.19322-.1875-.45529-.2929-.72854-.2929s-.53531.1054-.72853.2929-.30177.4419-.30177.7071.10855.5196.30177.7071c.19322.1876.45528.2929.72853.2929zm3.09091 0c.27325 0 .53532-.1053.72853-.2929.19322-.1875.30177-.4419.30177-.7071s-.10855-.5196-.30177-.7071c-.19321-.1875-.45528-.2929-.72853-.2929s-.53531.1054-.72853.2929-.30177.4419-.30177.7071.10855.5196.30177.7071c.19322.1876.45528.2929.72853.2929zm3.09094 0c.2732 0 .5353-.1053.7285-.2929.1932-.1875.3018-.4419.3018-.7071s-.1086-.5196-.3018-.7071-.4553-.2929-.7285-.2929c-.2733 0-.5353.1054-.7286.2929-.1932.1875-.3017.4419-.3017.7071s.1085.5196.3017.7071c.1933.1876.4553.2929.7286.2929zm3.0909 0c.2732 0 .5353-.1053.7285-.2929.1932-.1875.3018-.4419.3018-.7071s-.1086-.5196-.3018-.7071-.4553-.2929-.7285-.2929c-.2733 0-.5353.1054-.7286.2929-.1932.1875-.3017.4419-.3017.7071s.1085.5196.3017.7071c.1933.1876.4553.2929.7286.2929zm-9.27275 3c.27325 0 .53532-.1053.72854-.2929.19321-.1875.30176-.4419.30176-.7071s-.10855-.5196-.30176-.7071c-.19322-.1875-.45529-.2929-.72854-.2929s-.53531.1054-.72853.2929-.30177.4419-.30177.7071.10855.5196.30177.7071c.19322.1876.45528.2929.72853.2929zm3.09091 0c.27325 0 .53532-.1053.72853-.2929.19322-.1875.30177-.4419.30177-.7071s-.10855-.5196-.30177-.7071c-.19321-.1875-.45528-.2929-.72853-.2929s-.53531.1054-.72853.2929-.30177.4419-.30177.7071.10855.5196.30177.7071c.19322.1876.45528.2929.72853.2929zm3.09094 0c.2732 0 .5353-.1053.7285-.2929.1932-.1875.3018-.4419.3018-.7071s-.1086-.5196-.3018-.7071-.4553-.2929-.7285-.2929c-.2733 0-.5353.1054-.7286.2929-.1932.1875-.3017.4419-.3017.7071s.1085.5196.3017.7071c.1933.1876.4553.2929.7286.2929z"/></g></svg>

<svg width="20" height="21" viewBox="0 0 20 21" fill="none" xmlns="http://www.w3.org/2000/svg">
<path fill-rule="evenodd" clip-rule="evenodd" d="M16.5833 2.5H4.08333C3.5308 2.5 3.0009 2.71949 2.61019 3.11019C2.21949 3.5009 2 4.0308 2 4.58333L2 17.0833C2 17.6359 2.21949 18.1658 2.61019 18.5565C3.0009 18.9472 3.5308 19.1667 4.08333 19.1667H16.5833C17.1359 19.1667 17.6658 18.9472 18.0565 18.5565C18.4472 18.1658 18.6667 17.6359 18.6667 17.0833V4.58333C18.6667 4.0308 18.4472 3.5009 18.0565 3.11019C17.6658 2.71949 17.1359 2.5 16.5833 2.5V2.5ZM3.04167 6.51771C3.04167 6.025 3.50833 5.625 4.08333 5.625H16.5833C17.1583 5.625 17.625 6.025 17.625 6.51771V17.2323C17.625 17.725 17.1583 18.125 16.5833 18.125H4.08333C3.50833 18.125 3.04167 17.725 3.04167 17.2323V6.51771Z" fill="black"/>
<path fill-rule="evenodd" clip-rule="evenodd" d="M8.78796 9.83331C9.06121 9.83331 9.32328 9.72796 9.51649 9.54042C9.70971 9.35288 9.81826 9.09853 9.81826 8.83331C9.81826 8.5681 9.70971 8.31374 9.51649 8.12621C9.32328 7.93867 9.06121 7.83331 8.78796 7.83331C8.51471 7.83331 8.25265 7.93867 8.05943 8.12621C7.86621 8.31374 7.75766 8.5681 7.75766 8.83331C7.75766 9.09853 7.86621 9.35288 8.05943 9.54042C8.25265 9.72796 8.51471 9.83331 8.78796 9.83331ZM11.8789 9.83331C12.1521 9.83331 12.4142 9.72796 12.6074 9.54042C12.8006 9.35288 12.9092 9.09853 12.9092 8.83331C12.9092 8.5681 12.8006 8.31374 12.6074 8.12621C12.4142 7.93867 12.1521 7.83331 11.8789 7.83331C11.6056 7.83331 11.3436 7.93867 11.1503 8.12621C10.9571 8.31374 10.8486 8.5681 10.8486 8.83331C10.8486 9.09853 10.9571 9.35288 11.1503 9.54042C11.3436 9.72796 11.6056 9.83331 11.8789 9.83331ZM14.9698 9.83331C15.243 9.83331 15.5051 9.72796 15.6983 9.54042C15.8915 9.35288 16.0001 9.09853 16.0001 8.83331C16.0001 8.5681 15.8915 8.31374 15.6983 8.12621C15.5051 7.93867 15.243 7.83331 14.9698 7.83331C14.6965 7.83331 14.4345 7.93867 14.2412 8.12621C14.048 8.31374 13.9395 8.5681 13.9395 8.83331C13.9395 9.09853 14.048 9.35288 14.2412 9.54042C14.4345 9.72796 14.6965 9.83331 14.9698 9.83331ZM5.69705 12.8333C5.9703 12.8333 6.23237 12.728 6.42559 12.5404C6.6188 12.3529 6.72735 12.0985 6.72735 11.8333C6.72735 11.5681 6.6188 11.3137 6.42559 11.1262C6.23237 10.9387 5.9703 10.8333 5.69705 10.8333C5.4238 10.8333 5.16174 10.9387 4.96852 11.1262C4.7753 11.3137 4.66675 11.5681 4.66675 11.8333C4.66675 12.0985 4.7753 12.3529 4.96852 12.5404C5.16174 12.728 5.4238 12.8333 5.69705 12.8333ZM8.78796 12.8333C9.06121 12.8333 9.32328 12.728 9.51649 12.5404C9.70971 12.3529 9.81826 12.0985 9.81826 11.8333C9.81826 11.5681 9.70971 11.3137 9.51649 11.1262C9.32328 10.9387 9.06121 10.8333 8.78796 10.8333C8.51471 10.8333 8.25265 10.9387 8.05943 11.1262C7.86621 11.3137 7.75766 11.5681 7.75766 11.8333C7.75766 12.0985 7.86621 12.3529 8.05943 12.5404C8.25265 12.728 8.51471 12.8333 8.78796 12.8333ZM11.8789 12.8333C12.1521 12.8333 12.4142 12.728 12.6074 12.5404C12.8006 12.3529 12.9092 12.0985 12.9092 11.8333C12.9092 11.5681 12.8006 11.3137 12.6074 11.1262C12.4142 10.9387 12.1521 10.8333 11.8789 10.8333C11.6056 10.8333 11.3436 10.9387 11.1503 11.1262C10.9571 11.3137 10.8486 11.5681 10.8486 11.8333C10.8486 12.0985 10.9571 12.3529 11.1503 12.5404C11.3436 12.728 11.6056 12.8333 11.8789 12.8333ZM14.9698 12.8333C15.243 12.8333 15.5051 12.728 15.6983 12.5404C15.8915 12.3529 16.0001 12.0985 16.0001 11.8333C16.0001 11.5681 15.8915 11.3137 15.6983 11.1262C15.5051 10.9387 15.243 10.8333 14.9698 10.8333C14.6965 10.8333 14.4345 10.9387 14.2412 11.1262C14.048 11.3137 13.9395 11.5681 13.9395 11.8333C13.9395 12.0985 14.048 12.3529 14.2412 12.5404C14.4345 12.728 14.6965 12.8333 14.9698 12.8333ZM5.69705 15.8333C5.9703 15.8333 6.23237 15.728 6.42559 15.5404C6.6188 15.3529 6.72735 15.0985 6.72735 14.8333C6.72735 14.5681 6.6188 14.3137 6.42559 14.1262C6.23237 13.9387 5.9703 13.8333 5.69705 13.8333C5.4238 13.8333 5.16174 13.9387 4.96852 14.1262C4.7753 14.3137 4.66675 14.5681 4.66675 14.8333C4.66675 15.0985 4.7753 15.3529 4.96852 15.5404C5.16174 15.728 5.4238 15.8333 5.69705 15.8333ZM8.78796 15.8333C9.06121 15.8333 9.32328 15.728 9.51649 15.5404C9.70971 15.3529 9.81826 15.0985 9.81826 14.8333C9.81826 14.5681 9.70971 14.3137 9.51649 14.1262C9.32328 13.9387 9.06121 13.8333 8.78796 13.8333C8.51471 13.8333 8.25265 13.9387 8.05943 14.1262C7.86621 14.3137 7.75766 14.5681 7.75766 14.8333C7.75766 15.0985 7.86621 15.3529 8.05943 15.5404C8.25265 15.728 8.51471 15.8333 8.78796 15.8333ZM11.8789 15.8333C12.1521 15.8333 12.4142 15.728 12.6074 15.5404C12.8006 15.3529 12.9092 15.0985 12.9092 14.8333C12.9092 14.5681 12.8006 14.3137 12.6074 14.1262C12.4142 13.9387 12.1521 13.8333 11.8789 13.8333C11.6056 13.8333 11.3436 13.9387 11.1503 14.1262C10.9571 14.3137 10.8486 14.5681 10.8486 14.8333C10.8486 15.0985 10.9571 15.3529 11.1503 15.5404C11.3436 15.728 11.6056 15.8333 11.8789 15.8333Z" fill="black"/>
</svg>
